svgs/sharp-light/child.svg

<svg xmlns="http://www.w3.org/2000/svg" viewBox="0 0 320 512"><!--! Font Awesome Pro 6.6.0 by @fontawesome - https://fontawesome.com License - https://fontawesome.com/license (Commercial License) Copyright 2024 Fonticons, Inc. --><path d="M128 64a32 32 0 1 1 64 0 32 32 0 1 1 -64 0zm96 0A64 64 0 1 0 96 64a64 64 0 1 0 128 0zM94.5 160l-9 0-4.7 7.6L2.4 295.6l27.3 16.7L80 230.2 80 496l0 16 32 0 0-16 0-112 96 0 0 112 0 16 32 0 0-16 0-265.8 50.4 82.1 27.3-16.7-78.5-128-4.7-7.6-9 0-131 0zM208 352l-96 0 0-152 0-8 96 0 0 8 0 152z"/></svg>

<svg xmlns="http://www.w3.org/2000/svg" viewBox="0 0 320 512"><!--! Font Awesome Pro 6.5.2 by @fontawesome - https://fontawesome.com License - https://fontawesome.com/license (Commercial License) Copyright 2024 Fonticons, Inc. --><path d="M128 64a32 32 0 1 1 64 0 32 32 0 1 1 -64 0zm96 0A64 64 0 1 0 96 64a64 64 0 1 0 128 0zM94.5 160h-9l-4.7 7.6L2.4 295.6l27.3 16.7L80 230.2V496v16h32V496 384h96V496v16h32V496 230.2l50.4 82.1 27.3-16.7-78.5-128-4.7-7.6h-9H94.5zM208 352H112V200v-8h96v8V352z"/></svg>
